X:3162
T:Jug of Punch, The
O:england
R:reel
H:Also in Edor, #538
M:C|
K:Ddor
A,DDC DEFG|AG~G2 AcGF|EA,A,G, A,2EF|G2AG FDEC|
A,DDE FDDE|FDED CDEG|cded cAGE|1 FGEF D2DC:|2 FGEF D2 (3EFG||
|:Adde ~f3d|efed cAGc|AGAB ~c3d|eaag edcA|
~d3e f2fd|efed cAAB|~c3A B2AG|1 FDEC D2 (3EFG:|2 FDEC D2DC||


